X:639
T:Belles of Tipperary, The
B:Ryan's Mammoth Collection
Z:Nigel Gatherer
L:1/8
M:4/4
K:D
D3 D F2 A2 | defe dcBA | BcBA B2 b2 | afde fe e2  |
D3 D F2 A2 | defe dcBA | BcBA BcdB  | AGFE ADD2  :|
a3 b agfa  | gfeg fedc | BcBA B2 b2 | afde fe e2  |
a3 b agfa  | gfeg fedc | BcBA BcdB  | AGFE ADD2 :|]
<end>
<start>
